azure-patterns/svg-windows.svg

<svg xmlns="http://www.w3.org/2000/svg" viewBox="0 0 48 48">
                                
                            
    <path d="M0 6.79595L19.6162 4.13286L19.6247 22.996L0.0178124 23.1072L0 6.79595ZM19.6068 25.1691L19.6219 44.0487L0.0151876 41.3612L0.0140625 25.0425L19.6068 25.1691ZM21.9847 3.78425L47.994 0V22.756L21.9847 22.9616V3.78425ZM48 25.3467L47.9938 48L21.9846 44.3404L21.9482 25.3043L48 25.3467Z" fill="#0078D4"></path>
</svg>

<svg xmlns="http://www.w3.org/2000/svg" viewBox="0 0 48 48"><path d="M0 6.796l19.616-2.663.009 18.863-19.607.111L0 6.796zm19.607 18.373l.015 18.88L.015 41.36V25.043l19.592.126zm2.378-21.385L47.994 0v22.756l-26.01.206V3.784zM48 25.347L47.994 48l-26.01-3.66-.036-19.036L48 25.347z" fill="#0078D4"/></svg>
